X: 10381
Q: "Marchia"
M: C
L: 1/8
K: D
V: 1
!f!(f>g) |\
{b}a2gf {a}g2fe | d2d>d e2e>e | f3(e/f/) g2f2 | e2e>e .e2(f>g) |\
{b}a2gf {a}g2fe | d2d>d e2e>e | f(age) d2Te2{de} | d2d>d d2 :|
|: (c>d) |\
e2e>e (a3g) | f2f>f .f2a>a | d'3a {c'/}ba {a/}gf | (f4 .e2)(e>f) |\
{a}g2(fe) e>e (f>g) | {b}a2gf f>f d'>a | bd'bg f2Te2{de} | d2d>d d2 :|
V: 2
(d>e) | {g}f2ed {f}e2dA | F2F>F c2c>c | d3(c/d/) e2d2 | c2c>c .c2(d>e) | {g}f2ed {f}e2dA |
f3f {a/}gf {f/}ed | (d4 .c2)(c>d) | {f}e2(dc) c>c (d>e) | {g}f2ed d>d f>f | gbge d2Tc2{Bc} | d2F>F F2 :|


